!!!COM: Gustav Mahler
!!!CNT: Deutsch
!!!TXO: Deutsch
!!!OTL: "Das irdische Leben"
!!!LYR: Des Knaben Wunderhorn
!!!OPR: Des Knaben Wunderhorn, Part 1
!!!ENC: O'Neal Douglas
!!!YOR: CD Sheet Music: Late Romantic German Lieder
!!!YOR: CD Sheet Music, LLC, 2001
!!!ODT: 1893/
!!NB: Vocal melody and text encoded.
**kern	**text
*staff1	*staff1
*clefG2	*
*k[b-e-a-d-g-c-]	*
*M2/4	*
*MM104	*
8r	.
=1	=1
2r	.
=2	=2
2r	.
=3	=3
2r	.
=4	=4
2r	.
=5	=5
2r	.
=6	=6
2r	.
=7	=7
{4b-	{"Mut-
8an	-ter,
8b-	ach
=8	=8
4a-	Mut-
8gn	-ter,
8a-	es
=9	=9
4g-	hun-
(8f	-gert
8g-)	|
=10	=10
2f	mich.
=11	=11
4e-	Gib
4ee-	mir
=12	=12
4.ff-	Brot,
8f-	sonst
=13	=13
4e-	ster-
4ee-	-be
=14	=14
2ff-}	ich!"}
=15	=15
2r	.
=16	=16
2r	.
=17	=17
2r	.
=18	=18
2r	.
=19	=19
{8f	{"War-
8dn	-te
4B-	nur!
=20	=20
8f	War-
8dn	-te
8B-	nur,
8d	mein
=21	=21
(8f	lie-
8b-)	|
(8b-	-bes
8a-)	|
=22	=22
2g-	Kind!
=23	=23
4f	Mor-
4b-	-gen
=24	=24
4ddn	wol-
8ee-	-len
8dd	wir
=25	=25
(8ccn	ern-
8b-)	|
8an	-ten
8b-	ge-
=26	=26
2g-}	-schwind!"}
=27	=27
2r	.
=28	=28
2r	.
=29	=29
2r	.
=30	=30
2r	.
=31	=31
2r	.
=32	=32
2r	.
=33	=33
{(8f	{Und
8e-)	|
8dn	als
8e-	das
=34	=34
(8f	Korn
8g-)	|
(8a-	ge-
8f)	|
=35	=35
(8g-	-ern-
8a-)	|
(8g-	-tet
8a-)	|
=36	=36
2b-	war,
=37	=37
(4bn	rief
8g#)	|
8b	das
=38	=38
4an	Kind
4f#	noch
=39	=39
(8bn	im-
8an)	|
(8g#	-mer-
8b)	|
=40	=40
2b-}	-dar:}
=41	=41
{4b-	{"Mut-
8an	-ter,
8b-	ach
=42	=42
4a-	Mut-
8gn	-ter,
8a-	es
=43	=43
4g-	hun-
(8f	-gert
8g-)	|
=44	=44
2f	mich,
=45	=45
4e-	gib
4ee-	mir
=46	=46
4.ddn	Brot
8dn	sonst
=47	=47
4d-	ster-
4dd-	-be
=48	=48
2ccn}	ich!"}
=49	=49
2r	.
=50	=50
2r	.
=51	=51
2r	.
=52	=52
2r	.
=53	=53
{8f	{"War-
8dn	-te
4B-	nur,
=54	=54
8f	war-
8dn	-te
8B-	nur,
8d	mein
=55	=55
(4f	lie-
8b-)	|
8a-	-bes
=56	=56
2g-	Kind!
=57	=57
4f	Mor-
4b-	-gen
=58	=58
4ddn	wol-
8ee-	-len
8dd	wir
=59	=59
(8ccn	dre-
8b-)	|
8an	-schen
8b-	ge-
=60	=60
2g-}	-schwind!"}
=61	=61
2r	.
=62	=62
2r	.
=63	=63
2r	.
=64	=64
2r	.
=65	=65
2r	.
=66	=66
2r	.
=67	=67
{(8a-	{Und
8g-)	|
8f	als
8g-	das
=68	=68
(8a-	Korn
8b-)	|
(8cc-	ge-
8a-)	|
=69	=69
(8b-	-dro-
8cc-)	|
(8b-	-schen
8cc-)	|
=70	=70
2dd-	war,
=71	=71
(4ddn	rief
8bn)	|
8dd	das
=72	=72
4cc#	Kind
4an	noch
=73	=73
(8ddn	im-
8cc#)	|
(8bn	-mer-
8dd)	|
=74	=74
(4cc#	-dar:
8ccn	|
8cc-)}	|}
=75	=75
{4b-	{"Mut-
8ee-	-ter,
8b-	ach
=76	=76
4a-	Mut-
8ee-	-ter,
8a-	es
=77	=77
(4g-	hun-
8ee-)	|
8g-	-gert
=78	=78
2f	mich,
=79	=79
4e-	gib
4gg-	mir
=80	=80
4.ff	Brot,
8dn	sonst
=81	=81
4c#	ster-
4een	-be
=82	=82
2ee-}	ich!"}
=83	=83
2r	.
=84	=84
2r	.
=85	=85
2r	.
=86	=86
2r	.
=87	=87
{8f	{"War-
8dn	-te
4B-	nur,
=88	=88
8f	war-
8dn	-te
8B-	nur,
8d	mein
=89	=89
(8f	lie-
8b-)	|
(8b-	-bes
8a-)	|
=90	=90
2g-	Kind!
=91	=91
4f	Mor-
4b-	-gen
=92	=92
4ddn	wol-
8ee-	-len
8dd	wir
=93	=93
(8ccn	bak-
8b-)	|
8an	-ken
8b-	ge-
=94	=94
2g-}	-schwind!"}
=95	=95
2r	.
=96	=96
2r	.
=97	=97
2r	.
=98	=98
2r	.
=99	=99
2r	.
=100	=100
2r	.
=101	=101
2r	.
=102	=102
2r	.
=103	=103
2r	.
=104	=104
2r	.
=105	=105
2r	.
=106	=106
2r	.
=107	=107
2r	.
=108	=108
2r	.
=109	=109
2r	.
=110	=110
2r	.
=111	=111
{4b-	{Und
8an	als
8b-	das
=112	=112
4a-	Brot
(8gn	ge-
8a-)	|
=113	=113
4g-	-bak-
(8f	-ken
8g-)	|
=114	=114
2f}	war.}
=115	=115
2r	.
=116	=116
2r	.
=117	=117
2r	.
=118	=118
2r	.
=119	=119
{4e-	{lag
4ee-	das
=120	=120
4ff-	Kind
8f-	auf
8f-	der
=121	=121
2e-	To-
=122	=122
2ee-	-ten-
=123	=123
[2gg-	-bahr!
=124	=124
2gg-]}	|}
=125	=125
2r	.
=126	=126
2r	.
=127	=127
2r	.
=128	=128
2r	.
=129	=129
2r	.
=130	=130
2r	.
=131	=131
2r	.
=132	=132
2r	.
=133	=133
2r	.
=134	=134
2r	.
=135	=135
2r	.
=136	=136
2r	.
==	==
*-	*-
